static/assets/images/exchanges/dexalot.svg

<svg width="320" height="256" viewBox="0 0 320 256" fill="none" xmlns="http://www.w3.org/2000/svg">
<path fill-rule="evenodd" clip-rule="evenodd" d="M58.4826 164.381C61.3406 206.983 110.772 256.513 159.212 255.996C212.005 255.432 260.697 208.492 260.697 164.004V162.495C321.059 130.072 319.173 89.7306 319.173 89.7306L246.738 134.973C303.705 91.2387 302.951 43.3573 302.951 43.3573L226.743 116.122C277.674 34.6858 259.942 0 259.942 0L199.58 98.0251C187.13 94.6319 173.549 92.7468 159.212 92.7468H157.703C142.99 92.7468 129.786 94.6319 117.336 98.0251L58.8599 0C58.8599 0 38.8648 31.6696 89.4184 113.483L15.8517 43.3573C15.8517 43.3573 8.68364 85.5834 69.0461 132.334C69.0461 133.088 0.00652709 90.1077 0.00652709 90.1077C0.00652709 90.1077 -1.8798 130.449 58.4826 162.872V164.381ZM232.025 171.921C232.025 171.921 214.67 170.79 204.107 181.346C194.298 191.149 194.675 209.246 194.675 209.246C194.675 209.246 212.03 210.377 222.593 199.82C233.534 189.641 232.025 171.921 232.025 171.921ZM118.091 181.346C107.904 170.413 90.1729 171.921 90.1729 171.921C90.1729 171.921 89.0411 190.018 99.6046 199.82C109.791 210.754 127.522 209.246 127.522 209.246C127.522 209.246 128.654 191.903 118.091 181.346Z" fill="url(#paint0_linear_9885_1233)"/>
<defs>
<linearGradient id="paint0_linear_9885_1233" x1="60.2414" y1="431.554" x2="236.962" y2="20.7463" gradientUnits="userSpaceOnUse">
<stop stop-color="#F5477B"/>
<stop offset="1" stop-color="#CD31AE"/>
</linearGradient>
</defs>
</svg>

<svg xmlns="http://www.w3.org/2000/svg" fill="none" viewBox="0 0 320 256"><path fill="url(#paint0_linear_9885_1233)" fill-rule="evenodd" d="M58.483 164.381c2.858 42.602 52.289 92.132 100.729 91.615 52.793-.564 101.485-47.504 101.485-91.992v-1.509c60.362-32.423 58.476-72.764 58.476-72.764l-72.435 45.242c56.967-43.734 56.213-91.616 56.213-91.616l-76.208 72.765C277.674 34.686 259.942 0 259.942 0L199.58 98.025c-12.45-3.393-26.031-5.278-40.368-5.278h-1.509c-14.713 0-27.917 1.885-40.367 5.278L58.86 0S38.865 31.67 89.418 113.483L15.852 43.357s-7.168 42.226 53.194 88.977c0 .754-69.04-42.226-69.04-42.226s-1.886 40.341 58.477 72.764zm173.542 7.54s-17.355-1.131-27.918 9.425c-9.809 9.803-9.432 27.9-9.432 27.9s17.355 1.131 27.918-9.426c10.941-10.179 9.432-27.899 9.432-27.899m-113.934 9.425c-10.187-10.933-27.918-9.425-27.918-9.425s-1.132 18.097 9.432 27.899c10.186 10.934 27.917 9.426 27.917 9.426s1.132-17.343-9.431-27.9" clip-rule="evenodd"/><defs><linearGradient id="paint0_linear_9885_1233" x1="60.241" x2="236.962" y1="431.554" y2="20.746" gradientUnits="userSpaceOnUse"><stop stop-color="#F5477B"/><stop offset="1" stop-color="#CD31AE"/></linearGradient></defs></svg>
